src/16/actions/document-new-from-template.svg

<svg xmlns="http://www.w3.org/2000/svg" viewBox="0 0 16 16">
  <defs id="defs3051">
    <style type="text/css" id="current-color-scheme">
      .ColorScheme-Text {
        color:#5d656b;
      }
      </style>
  </defs>
 <path style="fill:currentColor;fill-opacity:1;stroke:none" 
     d="M 3 2 L 3 3 L 3 13 L 3 14 L 9 14 L 9 13 L 4 13 L 4 3 L 9 3 L 9 6 L 12 6 L 12 9 L 13 9 L 13 7 L 13 6 L 13 5 L 10 2 L 8 2 L 3 2 z M 11.5 9 L 11.021484 10.345703 L 9.7324219 9.7324219 L 10.345703 11.021484 L 9 11.5 L 10.345703 11.978516 L 9.7324219 13.267578 L 11.021484 12.654297 L 11.5 14 L 11.978516 12.654297 L 13.267578 13.267578 L 12.654297 11.978516 L 14 11.5 L 12.654297 11.021484 L 13.267578 9.7324219 L 11.978516 10.345703 L 11.5 9 z "
     class="ColorScheme-Text"
     />
</svg>

<svg xmlns="http://www.w3.org/2000/svg" viewBox="0 0 16 16"><path d="M3 2v12h6v-1H4V3h5v3h3v3h1V5l-3-3H3zm8.5 7l-.479 1.346-1.289-.614.614 1.29L9 11.5l1.346.479-.614 1.289 1.29-.614L11.5 14l.479-1.346 1.289.614-.614-1.29L14 11.5l-1.346-.479.614-1.289-1.29.614L11.5 9z" fill="currentColor" color="#5d656b"/></svg>
